packages/core/src/svgs/tokens/branded/NXT.svg

<svg width="24" height="24" viewBox="0 0 24 24" fill="none" xmlns="http://www.w3.org/2000/svg">
<path d="M2 13.4584C2 13.2926 2.06585 13.1336 2.18306 13.0164C2.30026 12.8992 2.45924 12.8333 2.62499 12.8333H4.70833C4.87409 12.8333 5.03306 12.8992 5.15027 13.0164C5.26748 13.1336 5.33333 13.2926 5.33333 13.4584C5.33333 13.6241 5.26748 13.7831 5.15027 13.9003C5.03306 14.0175 4.87409 14.0833 4.70833 14.0833H2.62499C2.45924 14.0833 2.30026 14.0175 2.18306 13.9003C2.06585 13.7831 2 13.6241 2 13.4584ZM15.3334 10.5417C15.3334 10.3759 15.3992 10.217 15.5163 10.0997C15.6336 9.98254 15.7926 9.91669 15.9583 9.91669H21.375C21.5407 9.91669 21.6997 9.98254 21.8169 10.0997C21.9342 10.217 22 10.3759 22 10.5417V12.1696C22 12.3354 21.9342 12.4943 21.8169 12.6116C21.6997 12.7287 21.5407 12.7946 21.375 12.7946C21.2092 12.7946 21.0502 12.7287 20.9331 12.6116C20.8158 12.4943 20.75 12.3354 20.75 12.1696V11.1666H15.9583C15.7926 11.1666 15.6336 11.1008 15.5163 10.9837C15.3992 10.8664 15.3334 10.7075 15.3334 10.5417ZM2 10.5417C2 10.3759 2.06585 10.217 2.18306 10.0997C2.30026 9.98254 2.45924 9.91669 2.62499 9.91669H4.70833C4.825 9.91669 4.93958 9.94919 5.03875 10.0113L9.57249 12.8333H11.3863C11.552 12.8333 11.711 12.8992 11.8282 13.0164C11.9454 13.1336 12.0113 13.2926 12.0113 13.4584C12.0113 13.6241 11.9454 13.7831 11.8282 13.9003C11.711 14.0175 11.552 14.0833 11.3863 14.0833H9.39417C9.27734 14.0833 9.16289 14.0505 9.06375 13.9888L4.52917 11.1666H2.62499C2.45924 11.1666 2.30026 11.1008 2.18306 10.9837C2.06585 10.8664 2 10.7075 2 10.5417ZM8.66666 10.5417C8.66666 10.3759 8.73251 10.217 8.84972 10.0997C8.96693 9.98254 9.1259 9.91669 9.29167 9.91669H11.5709C11.6792 9.91669 11.7854 9.94503 11.8796 9.99835L16.8612 12.8333H18.875C19.0407 12.8333 19.1997 12.8992 19.317 13.0164C19.4341 13.1336 19.5 13.2926 19.5 13.4584C19.5 13.6241 19.4341 13.7831 19.317 13.9003C19.1997 14.0175 19.0407 14.0833 18.875 14.0833H16.6958C16.5874 14.0834 16.4809 14.0552 16.3867 14.0016L11.4054 11.1666H9.29167C9.1259 11.1666 8.96693 11.1008 8.84972 10.9837C8.73251 10.8664 8.66666 10.7075 8.66666 10.5417Z" fill="#008FBB"/>
</svg>

<svg xmlns="http://www.w3.org/2000/svg" width="24" height="24" fill="none" viewBox="0 0 24 24">
    <path fill="#008FBB" d="M2 13.458a.625.625 0 0 1 .625-.625h2.083a.625.625 0 0 1 0 1.25H2.625A.625.625 0 0 1 2 13.458m13.333-2.916a.626.626 0 0 1 .625-.625h5.417a.625.625 0 0 1 .625.625v1.628a.625.625 0 1 1-1.25 0v-1.003h-4.792a.626.626 0 0 1-.625-.625M2 10.542a.625.625 0 0 1 .625-.625h2.083c.117 0 .232.032.33.094l4.534 2.822h1.814a.625.625 0 0 1 0 1.25H9.394a.63.63 0 0 1-.33-.094l-4.535-2.822H2.625A.625.625 0 0 1 2 10.542m6.667 0a.625.625 0 0 1 .625-.625h2.279c.108 0 .214.028.309.081l4.981 2.835h2.014a.625.625 0 0 1 0 1.25h-2.18a.6.6 0 0 1-.308-.081l-4.982-2.835H9.292a.625.625 0 0 1-.625-.625"/>
</svg>
